X: 63
T: The Youngest Ancient Mariner
C:Phil Cunningham
M:3/4
L:1/4
K:A
A3 | A B c | f3 | a3/ f/ e | c3  | e3/ f/ A | c/ (B3/ B) | c3/ B/ A |
A3 | A3/ B/ c | f3  | a3/ f/ e | c3 | e3/ B/ e | (A3 | A3) :|
|: f3 | a3/ f/ e | c3 |  c3/ B/ c | f3 | e3/ f/ A | c/ (B3/ B)|1
 c3/ B/ A| f3 | a3/ f/ e| c3 | c3/ B/ c| A3 | e3/ B/ e| (A3| A3) :|2
 c3/ B/ A| A3 | A3/ B/ c| f3 |a3/ f/e | c3 | e3/ B/e | (A3| A3) ||
